X: 1
T: String Quartet in E\b Major opus 76 no 6 mvt 4
C: Franz Joseph Haydn
%%abc-version 2.0
%%abcx-abcm2ps-target-version 5.9.1 (29 Sep 2008)
%%abc-creator hum2abc beta
%%abcx-conversion-date 2021/02/14 14:38:23
%%abc-copyright Copyright (c) 1994, 2000 Center for Computer Assisted Research in the Humanities
%%abc-edited-by Frances Bennion
%%abcx-initial-encoding-date 1997/04/15
%%gracespace 0 6 6
%%humdrum-veritas 3955620663
%%humdrum-veritas-data 3218102013
%%linebreak <none>
%%barnumbers 0
L: 1/8
M: 3/4
N: Derived from op76n6-04.krn
Q: "Finale: Allegro spirituoso"
%%staves [1 2 3 4]
V: 1
V: 2
V: 3 clef=alto
V: 4 clef=bass
K: Eb
[V:1]z2 >B2 AG [I:setbarnb1]|
[V:2]z3 z3 |
[V:3]z3 z3 |
[V:4]z3 z3 |
[V:1]FE ze dc |
[V:2]z2 G2 z2 |
[V:3]z2 E2 z2 |
[V:4]z2 E,2 z2 |
[V:1]BA zA GF |
[V:2]z2 A2 z2 |
[V:3]z2 C2 z2 |
[V:4]z2 F,2 z2 |
[V:1]ED zc BA |
[V:2]z2 A2 z2 |
[V:3]z2 F2 z2 |
[V:4]z2 B,,2 z2 |
[V:1]^FG zB eg |
[V:2]z2 G2 z2 |
[V:3]z2 B,2 z2 |
[V:4]z2 E,2 z2 |
[V:1]b6- |
[V:2]zg a4 |
[V:3]ze f4 |
[V:4]z2 >B,2 CD |
[V:1]b6- |
[V:2]ge a4 |
[V:3]eB f4 |
[V:4]EG zB, CD |
[V:1]bc2 a2 g- |
[V:2]ge cf2 e- |
[V:3]e2 z4 |
[V:4]E2 A2 =A2 |
[V:1]gf zB AG |
[V:2]ed z4 |
[V:3]B,2 B2 z2 |
[V:4]B2 z4 |
[V:1]FE ze dc |
[V:2]z2 G2 z2 |
[V:3]z2 E2 z2 |
[V:4]z2 E,2 z2 |
[V:1]BA zA GF |
[V:2]z2 A2 z2 |
[V:3]z2 C2 z2 |
[V:4]z2 F,2 z2 |
[V:1]ED zc BA |
[V:2]z2 A2 z2 |
[V:3]z2 F2 z2 |
[V:4]z2 B,,2 z2 |
[V:1]^FG zG ce |
[V:2]z2 G2 z2 |
[V:3]z2 B,2 z2 |
[V:4]z2 E,2 z2 |
[V:1]g4- g^f |
[V:2]EG2 <G2 ^F |
[V:3]zE, G,C E2- |
[V:4]zC, E,G, C2- |
[V:1]g2 >a2 g2- |
[V:2]G2 >A2 G2- |
[V:3]ED2 <E2 F |
[V:4]C=B,2 <C2 D |
[V:1]g^f ga g=f |
[V:2]G^F GA G=B |
[V:3]E2 >D2 EF |
[V:4]C2 >=B,2 CD |
[V:1]e=B cF _Bd |
[V:2]c2 z4 |
[V:3]GA Gz3 |
[V:4]EF Ez3 |
[V:1]f4- f=e |
[V:2]DF2 <F2 =E |
[V:3]zD, F,B, D2- |
[V:4]zB,, D,F, B,2- |
[V:1]f2 >g2 f2- |
[V:2]F2 >G2 F2- |
[V:3]D^C2 <D2 E |
[V:4]B,=A,2 <B,2 C |
[V:1]f=e fg f_e |
[V:2]F=E FG F=A |
[V:3]D2 >C2 DE |
[V:4]B,2 >=A,2 B,C |
[V:1]d=A Bb =ag |
[V:2]B2 z3 d |
[V:3]F_G Fz2 B |
[V:4]DE Dz3 |
[V:1]f2 zg fe |
[V:2]cB =A2 zB |
[V:3]=AG F2 zG |
[V:4]z6 |
[V:1]d2 ze dc |
[V:2]=AG F2 zG |
[V:3]FE D2 z2 |
[V:4]z2 z3 E |
[V:1]B2 >=A2 B2- |
[V:2]FE2 <D2 C |
[V:3]z6 |
[V:4]DC2 <B,2 =A, |
[V:1]Bd' c'b =ag |
[V:2]B,2 >d2 cB |
[V:3]z2 >G,2 =A,B, |
[V:4]G,6 |
[V:1]f=e bg fe |
[V:2]B2 >G2 =AB |
[V:3]G>F =EE FG |
[V:4]C,6 |
[V:1]f=e f4 |
[V:2]=A2 zd cB |
[V:3]F2 zB =AG |
[V:4]F,2 z4 |
[V:1]f=e f2 fe |
[V:2]=A2 zd cB |
[V:3]F2 zB =AG |
[V:4]F,2 z4 |
[V:1]f=e f2 zf |
[V:2]=A2 z3 F |
[V:3]F2 zF ED |
[V:4]F,2 zF, E,D, |
[V:1]ed cB zb |
[V:2]ED CB, zB |
[V:3]CB, zB =AG |
[V:4]C,B,, zB, =A,G, |
[V:1]=ag fe zg |
[V:2]=AG FE zG |
[V:3]FE zG FE |
[V:4]F,E, zG, F,E, |
[V:1]fe dc ze' |
[V:2]FE DC ze |
[V:3]DC ze dc |
[V:4]D,C, zE DC |
[V:1]d'c' b=a zc' |
[V:2]dc B=A zc |
[V:3]B=A zc BA |
[V:4]B,=A, zC B,A, |
[V:1]b=a gf =e_e |
[V:2]B=A GF =E_E |
[V:3]GF zB, CF |
[V:4]G,F, G,2 =A,2 |
[V:1]d2 z4 |
[V:2]D=e/f/ e/f/g/f/ b/=a/g/f/ |
[V:3]FD DD DB |
[V:4]B,B, B,B, B,B, |
[V:1]z=b/c'/ b/c'/d'/c'/ e'/c'/f'/c'/ |
[V:2]e6 |
[V:3]=A6 |
[V:4]B,6 |
[V:1]d'2 z4 |
[V:2]d=e/f/ e/f/g/f/ b/=a/g/f/ |
[V:3]BD DD DB |
[V:4]B,,B, B,B, B,B, |
[V:1]z=b/c'/ b/c'/d'/c'/ e'/c'/f'/c'/ |
[V:2]e6 |
[V:3]=A6 |
[V:4]B,6 |
[V:1]d'd'/e'/ d'/e'/d'/e'/ f'/e'/d'/c'/ |
[V:2]d2 d2 cf |
[V:3]B2 z2 c2 |
[V:4]B,,B, B,B, A,A, |
[V:1]=b4 c'2 |
[V:2]f/=e/f/e/ f/a/g/f/ _e/d/c/d/ |
[V:3]d/^c/d/c/ d/f/e/d/ =c/d/e/d/ |
[V:4]G,4 C,2 |
[V:1]=a4 b2 |
[V:2]e/d/e/d/ e/c/d/e/ d/f/e/d/ |
[V:3]c/=B/c/B/ c/e/d/c/ _B/D/E/F/ |
[V:4]F,4 B,,2 |
[V:1]c'2 b2 =a2 |
[V:2]g>e d2 c2 |
[V:3]E2 F2 F2 |
[V:4]E,2 F,2 F,2 |
[V:1]b2 z4 |
[V:2]d2 zf ed |
[V:3]F2 zd cB |
[V:4]B,/F,/D,/B,,/ B,2 z2 |
[V:1]z/f/=a/c'/ e'e' d'c' |
[V:2]c2 F3 =E/F/ |
[V:3]=A2 z=A, B,C |
[V:4]z2 >C2 B,=A, |
[V:1]d'2 z4 |
[V:2]B2 zf ed |
[V:3]B,2 zd cB |
[V:4]B,/F,/D,/B,,/ B,2 z2 |
[V:1]z/f/=a/c'/ e'e' d'c' |
[V:2]c2 F3 =E/F/ |
[V:3]=A2 z=A, B,C |
[V:4]z2 >C2 B,=A, |
[V:1]d'c' b=a gf |
[V:2]B2 zf ed |
[V:3]B,^F GD E=B, |
[V:4]B,2 z4 |
[V:1]eg zg fe |
[V:2]ce ze dc |
[V:3]CB, zB, =A,=A |
[V:4]z6 |
[V:1]df zf ed |
[V:2]Bd zd cB |
[V:3]BB, zD EF |
[V:4]z2 >B,,2 C,D, |
[V:1]cz ez =Az |
[V:2]Gz cz Ez |
[V:3]Ez Gz Cz |
[V:4]E,z C,z F,z |
[V:1]B2 z4 |
[V:2]D2 z4 |
[V:3]B,/D/F/B/ B,D CB, |
[V:4]B,,2 zF ED |
[V:1]z/F/=A/c/ ee dc |
[V:2]z2 >c2 B=A |
[V:3]F,2 z=A, B,C |
[V:4]C2 F,3 =E,/F,/ |
[V:1]d2 z4 |
[V:2]B/d/f/b/ B2 z2 |
[V:3]B,2 zD CB, |
[V:4]B,2 zF ED |
[V:1]z/f/=a/c'/ e'e' d'c' |
[V:2]z2 >c2 B=A |
[V:3]F,2 z=A, B,C |
[V:4]C2 F,3 =E,/F,/ |
[V:1]d'c' ba gf |
[V:2]B=a bf gd |
[V:3]B,^F GD E=B, |
[V:4]B,2 z4 |
[V:1]eg zg fe |
[V:2]ee ze dc |
[V:3]CB, zB, =A,=A |
[V:4]z6 |
[V:1]df zf ed |
[V:2]Bd zd cB |
[V:3]BD zD EF |
[V:4]z2 >B,,2 C,D, |
[V:1]c6 |
[V:2]B6- |
[V:3]GG GG GG |
[V:4]E,E, E,E, E,E, |
[V:1]_d6 |
[V:2]B6- |
[V:3]GG GG GG |
[V:4]=E,E, E,E, E,E, |
[V:1]d4 ec |
[V:2]B4 c=A |
[V:3]FF FF FF |
[V:4]F,F, F,F, F,F, |
[V:1]BB b4- |
[V:2]B2 zD EF |
[V:3]D2 zB, CD |
[V:4]B,2 z4 |
[V:1]bB b4- |
[V:2]GA zD EF |
[V:3]EF zB, CD |
[V:4]z6 |
[V:1]bB ba gf |
[V:2]GA zD EF |
[V:3]EF zB, CD |
[V:4]z6 |
[V:1]ed zB de |
[V:2]GA z4 |
[V:3]EF z4 |
[V:4]zB,, B,2 z2 |
[V:1]=ef za gf |
[V:2]zD d2 z2 |
[V:3]zA, A2 z2 |
[V:4]zB,, B,2 z2 |
[V:1]ed zB de |
[V:2]zD d2 z2 |
[V:3]zA, A2 z2 |
[V:4]zB,, B,2 z2 |
[V:1]=ef za gf |
[V:2]zD d2 z2 |
[V:3]zA, A2 z2 |
[V:4]zB,, B,2 z2 |
[V:1]ed zc' ba |
[V:2]zD d2 z2 |
[V:3]zA, A2 z2 |
[V:4]zB,, B,2 z2 |
[V:1]gf zc' ba |
[V:2]zD d2 z2 |
[V:3]zA, A2 z2 |
[V:4]zB,, B,2 z2 |
[V:1]g_g f=e _ed |
[V:2]z6 |
[V:3]z6 |
[V:4]z6 |
[V:1]_dc =B_B AG |
[V:2]z6 |
[V:3]z6 |
[V:4]z6 |
[V:1]b=B =b4- |
[V:2]GA zA GF |
[V:3]EF zF ED |
[V:4]z6 |
[V:1]bc c'4- |
[V:2]G2 >F2 ED |
[V:3]E2 >D2 CB, |
[V:4]z6 |
[V:1]c'd' e'd' c'b |
[V:2]C2 >D2 E=E |
[V:3]A,6 |
[V:4]A,,6- |
[V:1]ag ^fe dc |
[V:2]F2 ^F4 |
[V:3]C3 C/D/ EC |
[V:4]A,,6 |
[V:1]=B2 [g2E2c2] z2 |
[V:2]G2 [g2c2E2] z2 |
[V:3]G2 C2 z2 |
[V:4]G,,2 zG, F,E, |
[V:1]z2 [a2F2c2] z2 |
[V:2]z2 [a2c2F2] z2 |
[V:3]z2 F,2 z2 |
[V:4]D,C, zC B,A, |
[V:1]z2 [D2=B2a2] z2 |
[V:2]z2 [F2=B2] z2 |
[V:3]z2 F2 z2 |
[V:4]G,F, zF, E,D, |
[V:1]z2 [d'2G2f2] z2 |
[V:2]z2 [f2d2G2] z2 |
[V:3]z2 =B,2 z2 |
[V:4]C,=B,, zA, G,F, |
[V:1]z2 [c2E2g2] z2 |
[V:2]z2 [E2G,2c2] z2 |
[V:3]z2 C2 z2 |
[V:4]D,E, zE, G,C |
[V:1]zG ce gd |
[V:2]z6 |
[V:3]z6 |
[V:4]E2 z4 |
[V:1]fe dc =Bd |
[V:2]z2 z2 F2 |
[V:3]z2 z2 A2 |
[V:4]z2 z2 D,2 |
[V:1]fa gf ed |
[V:2]z6 |
[V:3]z6 |
[V:4]z6 |
[V:1]ce g=b c'g |
[V:2]G2 z4 |
[V:3]c2 z4 |
[V:4]E,2 z4 |
[V:1]c'g c'b ac' |
[V:2]G2 z2 A2 |
[V:3]c2 z2 c2 |
[V:4]=E,2 z2 F,2 |
[V:1]a=e fc' af |
[V:2]z6 |
[V:3]z6 |
[V:4]z6 |
[V:1]ed fd =AB |
[V:2]F2 z4 |
[V:3]A2 z4 |
[V:4]B,,2 z4 |
[V:1]bf bf gd |
[V:2][F2B2] z2 [G2B2] |
[V:3]A2 z2 G2 |
[V:4]D,2 z2 E,2 |
[V:1]eB AG FE |
[V:2]z6 |
[V:3]z6 |
[V:4]z6 |
[V:1]DA Fc BA |
[V:2][A,2D2] z4 |
[V:3]B,2 z4 |
[V:4]F,2 z4 |
[V:1]GF =EB G_d |
[V:2]z2 [=E2G,2] z2 |
[V:3]z2 _D2 z2 |
[V:4]z2 G,2 z2 |
[V:1]cB AG Fc |
[V:2]z2 z2 [F2C2] |
[V:3]z2 z2 C2 |
[V:4]z2 z2 A,2 |
[V:1]f=e gf af |
[V:2]z6 |
[V:3]z6 |
[V:4]z6 |
[V:1]ca fc _df |
[V:2]z2 z2 A2 |
[V:3]z2 z2 A,2 |
[V:4]z2 z2 F,2 |
[V:1]af _d'a f'e' |
[V:2]z6 |
[V:3]z6 |
[V:4]z6 |
[V:1]_d'a f'e' d'c' |
[V:2]z6 |
[V:3]z6 |
[V:4]z6 |
[V:1]b_d' c'e' d'c' |
[V:2][E6-B,6] |
[V:3]_D6- |
[V:4]G,6- |
[V:1]b_d' c'e' d'c' |
[V:2][E6B,6-] |
[V:3]D6- |
[V:4]G,6- |
[V:1]b_d' c'e' d'c' |
[V:2][E6B,6-] |
[V:3]D6- |
[V:4]G,6- |
[V:1]b_d' c'b ac' |
[V:2][E6B,6-] |
[V:3]D6- |
[V:4]G,6- |
[V:1]ba gb ag |
[V:2][E2B,2] z4 |
[V:3]D2 z4 |
[V:4]G,2 z4 |
[V:1]fa gf ag |
[V:2]z6 |
[V:3]z6 |
[V:4]z6 |
[V:1]f2 a2 g2 |
[V:2]_D2 z4 |
[V:3][E2B,2] z4 |
[V:4]G,2 z4 |
[V:1]f2 ze _dc |
[V:2]z6 |
[V:3]z6 |
[V:4]z6 |
[V:1]BA za gf |
[V:2]z2 C2 z2 |
[V:3]z2 E2 z2 |
[V:4]z2 A,,2 z2 |
[V:1]e_d zd cB |
[V:2]z2 F2 z2 |
[V:3]z2 _D2 z2 |
[V:4]z2 A,,2 z2 |
[V:1]AG zf e_d |
[V:2]z2 [G2B,2] z2 |
[V:3]z2 _D2 z2 |
[V:4]z2 A,,2 z2 |
[V:1]=Bc zE Ac |
[V:2]z2 [C2A2] z2 |
[V:3]z2 C2 z2 |
[V:4]z2 A,,2 z2 |
[V:1]e6- |
[V:2]ec _d4 |
[V:3]cA B4 |
[V:4]z2 >E,2 F,G, |
[V:1]ec e4 |
[V:2]cA c4 |
[V:3]A2 z=A, B,C |
[V:4]A,C zF, G,=A, |
[V:1]_dB f4 |
[V:2]B2 d4 |
[V:3]_D2 z=B, C=D |
[V:4]B,_D zG, =A,=B, |
[V:1]ec g4 |
[V:2]c2 e4- |
[V:3]E2 z4 |
[V:4]CE zC, D,E, |
[V:1]a2 a3 g/a/ |
[V:2]e3/f//e// d4- |
[V:3]z2 >B,2 CD |
[V:4]F,A, z4 |
[V:1]g2 g3 f/g/ |
[V:2]d3/e//d// c4- |
[V:3]EG z4 |
[V:4]z2 >A,,2 B,,C, |
[V:1]f2 f3 =e/f/ |
[V:2]c3/d//c// =BB cd |
[V:3]z2 >G,2 =A,=B, |
[V:4]D,F, z4 |
[V:1]e2 =B2 c2 |
[V:2]e2 z4 |
[V:3]CE DF EG |
[V:4]z6 |
[V:1]_df =eg fa |
[V:2]z6 |
[V:3]F2 G2 A2 |
[V:4]z6 |
[V:1]gb ac' =bd' |
[V:2]z6 |
[V:3]=E2 F2 D2 |
[V:4]z6 |
[V:1]c'e' d'f' e'g' |
[V:2]z6 |
[V:3]E2 =B,2 C2 |
[V:4]z6 |
[V:1]a'2 z4 |
[V:2][a2c2] z4 |
[V:3]F2 z4 |
[V:4]F,,2 z4 |
[V:1]=B2 z3 G |
[V:2]F2 z4 |
[V:3]D2 z4 |
[V:4]G,,2 zG,, F,,E,, |
[V:1]FE DC zA |
[V:2]zG FE z2 |
[V:3]z2 >C2 B,A, |
[V:4]D,,C,, zA,, G,,F,, |
[V:1]GF ED zB |
[V:2]zA GF z2 |
[V:3]z2 >D2 CB, |
[V:4]E,,D,, zB,, A,,G,, |
[V:1]AG F=E _dc |
[V:2]zB AG F=E |
[V:3]z6 |
[V:4]F,,=E,, z4 |
[V:1]Bg f=e ba |
[V:2]z6 |
[V:3]z6 |
[V:4]z6 |
[V:1]g_d' c'b ag |
[V:2]_D2 z4 |
[V:3]B,2 z4 |
[V:4]=E,2 z4 |
[V:1]fc' ba gf |
[V:2]C2 z4 |
[V:3]A,2 z4 |
[V:4]F,2 z4 |
[V:1]ed cB AG |
[V:2]D2 z4 |
[V:3][F2A,2] z4 |
[V:4]B,,2 z4 |
[V:1]FE ze dc |
[V:2]z2 G2 z2 |
[V:3]z2 E2 z2 |
[V:4]z2 E,2 z2 |
[V:1]BA zA GF |
[V:2]z2 A2 z2 |
[V:3]z2 C2 z2 |
[V:4]z2 F,2 z2 |
[V:1]ED zc BA |
[V:2]z2 A2 z2 |
[V:3]z2 F2 z2 |
[V:4]z2 B,,2 z2 |
[V:1]^FG zB eg |
[V:2]z2 G2 z2 |
[V:3]z2 B,2 z2 |
[V:4]z2 E,2 z2 |
[V:1]b6- |
[V:2]zg a4 |
[V:3]ze f4 |
[V:4]z2 >B,2 CD |
[V:1]b6- |
[V:2]ge a4 |
[V:3]eB f4 |
[V:4]EG zB, CD |
[V:1]bc2 a2 g- |
[V:2]ge cf2 e- |
[V:3]e2 z4 |
[V:4]E2 A2 =A2 |
[V:1]gf2 <z2 B |
[V:2]ed2 <z2 B, |
[V:3]B,2 BB, A,G, |
[V:4]B2 zB,, A,,G,, |
[V:1]AG FE ze |
[V:2]A,G, DE zE |
[V:3]F,E, zE DC |
[V:4]F,,E,, zE, D,C, |
[V:1]dc BA zc |
[V:2]DC B,A, zC |
[V:3]B,A, zC B,A, |
[V:4]B,,A,, zC, B,,A,, |
[V:1]BA GF za |
[V:2]B,A, =EF zA |
[V:3]G,F, zA GF |
[V:4]G,,F,, zA, G,F, |
[V:1]gf ed zf |
[V:2]GF ED zF |
[V:3]ED zF ED |
[V:4]E,D, zF, E,D, |
[V:1]ed cB =A_A |
[V:2]ED CB, =A,_A, |
[V:3]CB, zE, F,B, |
[V:4]C,B,, C,2 D,2 |
[V:1]G2 z4 |
[V:2]G,=A/B/ A/B/c/B/ e/d/c/B/ |
[V:3]B,G, G,G, G,E |
[V:4]E,E, E,E, E,E, |
[V:1]z=e/f/ e/f/g/f/ a/f/b/f/ |
[V:2]A6 |
[V:3]D6 |
[V:4]E,6 |
[V:1]g2 z4 |
[V:2]G=A/B/ A/B/c/B/ e/d/c/B/ |
[V:3]EG, G,G, G,E |
[V:4]E,,E, E,E, E,E, |
[V:1]z=e/f/ e/f/g/f/ a/f/b/f/ |
[V:2]A6 |
[V:3]D6 |
[V:4]E,6 |
[V:1]gg/a/ b/c'/b/c'/ _d'/c'/d'/b/ |
[V:2]Ge/f/ g/a/g/a/ b/a/b/g/ |
[V:3]E6- |
[V:4]E,,E, E,E, E,E, |
[V:1]c'>a f2 e2 |
[V:2]a2 c4 |
[V:3]E2 F2 F2 |
[V:4]A,A, A,A, =A,A, |
[V:1]e2 db ag |
[V:2]c2 B2 z_d |
[V:3]F2 z3 B |
[V:4]B,B,, B,,4- |
[V:1]f=e fc' ba |
[V:2]cB AG Fe |
[V:3]AG FE Dc |
[V:4]B,,6- |
[V:1]gf ed cB |
[V:2]dc BA GF |
[V:3]BA GF ED |
[V:4]B,,4- B,,B, |
[V:1]AG c2 D2 |
[V:2]DE C2 A,2 |
[V:3]FE A2 F2 |
[V:4]=B,C A,2 _B,2 |
[V:1]E2 z4 |
[V:2]G,2 zB AG |
[V:3]E2 zG FE |
[V:4]E,/B,,/G,,/E,,/ E,2 z2 |
[V:1]z/B/d/f/ aa gf |
[V:2]F2 B,3 =A,/B,/ |
[V:3]D2 zD, E,F, |
[V:4]z2 >F2 ED |
[V:1]g2 z4 |
[V:2]E2 zB AG |
[V:3]E,2 zG FE |
[V:4]E/B,/G,/E,/ E2 z2 |
[V:1]z/B/d/f/ aa gf |
[V:2]F2 B,3 =A,/B,/ |
[V:3]D2 zD, E,F, |
[V:4]z2 >F2 ED |
[V:1]gf ed cB |
[V:2]E2 zB AG |
[V:3]E,=B, CG, A,=E, |
[V:4]E2 z4 |
[V:1]Ac zc BA |
[V:2]FA zA GF |
[V:3]F,E, zE, D,D |
[V:4]z6 |
[V:1]GB zb ag |
[V:2]EG zg fe |
[V:3]EE, zG AB |
[V:4]z2 >E,2 F,G, |
[V:1]fz az dz |
[V:2]cz fz Az |
[V:3]Az cz Fz |
[V:4]A,z F,z B,z |
[V:1]e2 z4 |
[V:2]G2 z4 |
[V:3]E/G/B/e/ EG FE |
[V:4]E,2 zB, A,G, |
[V:1]z2 >f2 ed |
[V:2]z/B/d/f/ aa gf |
[V:3][D2B,2] zD EF |
[V:4][F,2B,,2] B,,3 =A,,/B,,/ |
[V:1]e/g/b/e'/ e2 z2 |
[V:2]g2 z4 |
[V:3]E2 zB AG |
[V:4]E,2 zG, F,E, |
[V:1]z/B/d/f/ aa gf |
[V:2]z2 >f2 ed |
[V:3]F2 B,3 =A,/B,/ |
[V:4]B,,2 zD EF |
[V:1]gf e_d cB |
[V:2]ed eB cG |
[V:3]E=B cG A=E |
[V:4]E2 z4 |
[V:1]Ac zc' ba |
[V:2]AA za gf |
[V:3]FE zE Dd |
[V:4]z6 |
[V:1]gb zb ag |
[V:2]eg zg fe |
[V:3]eE zG AB |
[V:4]z2 >E,2 F,G, |
[V:1]f6 |
[V:2]e6- |
[V:3]cC CC CC |
[V:4]A,A, A,A, A,A, |
[V:1]_g6 |
[V:2]e6- |
[V:3]CC CC CC |
[V:4]=A,A, A,A, A,A, |
[V:1]g4 af |
[V:2]e4 fd |
[V:3]B,B, B,B, B,B, |
[V:4]B,B, B,B, B,B, |
[V:1]e2 zb ag |
[V:2]Bc _d4- |
[V:3]GA B4- |
[V:4]E,6- |
[V:1]fe ze' _d'c' |
[V:2]d2 c4- |
[V:3]B2 A4- |
[V:4]E,6- |
[V:1]ba zc' ba |
[V:2]c2 [d4-F4] |
[V:3]A2 A4- |
[V:4]E,6- |
[V:1]gf ed ad |
[V:2][d2F2] [d2F2] [d2F2] |
[V:3]A2 A2 A2 |
[V:4]E,2 E,2 E,2 |
[V:1]e2 z2 [f2B2D2] |
[V:2][eE]B AG FA |
[V:3]GG FE DF |
[V:4]E,2 z2 B,,2 |
[V:1][E2g2B2] z2 [B,2d2F2] |
[V:2]GB AG FA |
[V:3]EG FE DF |
[V:4]E,2 z2 B,,2 |
[V:1][e2E2G,2] [g2c2E2] z2 |
[V:2]G2 [g2c2E2] z2 |
[V:3]E2 C2 z2 |
[V:4]E,,2 zG, F,E, |
[V:1][E2G,2e2] z4 |]
[V:2]G2 z4 |]
[V:3]E2 z4 |]
[V:4]E,,2 z4 |]

